X: 65
T:Meeting of the Waters, the
M:2/2
L:1/4
C:ABC
R:Reel
K:D
A3/2 B/2||"D"d2 df|"D"A2 d3/2 c/2|"G"BdBG|"D"A2 d3/2 e/2|!
"D"faAa|"Em"gfed|"D"f2-f2|"A7"e2AB|!
"D"d2df|"D"A2d3/2c/2|"G"BdBG|"D"A2de|!
"D"fagf|"A7"gAce|"D"d2-"G"d2-|"D"d2 fg||!
"D"a3/2g/2fa|"D"f2fd|"G"B/2d3/2BG|"D"A2d3/2e/2|!
"D"faAa|"D"gfed|"G"f2-f2|"D"e2fg|!
"D"a3/2g/2fa|"Em"d2f3/2d/2|"D"B/2d3/2BG|"A7"A2 d3/2e/2|!
"D"fagf|"D"gAce|"D"d2-"G"d2-|"D"d2 a3/2g/2||!
"D"f2a3/2g/2|"D"fafA|"G"BdgB|"D"A2d3/2c/2|!
"D"BGBd|"D"gfed|"G"f2-f2|"D"e2 a3/2 g/2|!
"G"f2 a3/2g/2|"Em"fafA|"D"BdgB|"A7"A2 d3/2e/2|!
"D"fagf|"A7"gAce|"D"d2-"G"d2-|"D"d2||
% <A name="D1X066">
